X:1
T:Be Merciful, Be Merciful, O God
T:Tune: Louis Bourgeois, 1551; harm. Claude Goudimel, 1564 Text under copyright; for copyrighted material see Psalter Hymnal 51
T:PM GENEVAN 51 www.hymnary.org/text/be_merciful_be_merciful_o_god
T:Be Merciful, Be Merciful, O God
T:This music is in the public domain. You may freely use this score for personal and congregational worship. If you reproduce the score, please credit Hymnary.org as the source. 
T:This music is in the public domain. You may freely use this score for personal and congregational worship. If you reproduce the score, please credit Hymnary.org as the source. 
T:This music is in the public domain. You may freely use this score for personal and congregational worship. If you reproduce the score, please credit Hymnary.org as the source. 
Z:This music is in the public domain. You may freely use this score for personal and congregational worship. If you reproduce the score, please credit Hymnary.org as the source.
%%score ( 1 2 ) ( 3 4 )
L:1/8
M:18/4
K:C
V:1 treble nm="SOPRANO ALTO" snm="S. A."
V:2 treble 
V:3 bass nm="TENOR BASS" snm="T. B."
V:4 bass 
V:1
 E4 G2 G2 A4 E4 G2 G2 D4 F4 E8 | E4 E2 D2 | C4 E4 E2 F2 G2 A2 ^G4 A8 | A4 F2 F2 | %4
 E4 C4 D2 E2 F2 E2 D4 C8 | E4 G2 A2 |1 B4 G4 A2 c2 B2 B2 A8 | A4 A2 A2 G4 E4 || %8
"^Page 2" A2 A2 G4 F4 E8 | A4 A2 B2"^Be Merciful, Be Merciful, O God" c4 A4 G2 E2 | F2 G2 A4 E8 | %11
 E4 F2 D2 E4 C4 D2 E2 F4 D4 | E8 | A4 G2 G2 A4 c4 c2 B2 A2 G2 F4 E8 |] %14
V:2
 E4 E2 E2 E4 C4 D2 D2 B,4 C4 C8 | C4 C2 B,2 | C4 C4 C2 D2 E2 E2 E4 E8 | D4 D2 D2 | %4
 C4 A,4 B,2 C2 C2 C4 B,2 C8 | C4 E2 F2 |1 G4 E4 E2 E2 E2 E2 E8 | ^C4 D2 D2 B,4 C4 || %8
 F2 F2 E4 D4 ^C8 | E4 F2 G2 G4 F4 E2 E2 | D2 D2 E4 ^C8 | C4 C2 D2 C4 A,4 B,2 C2 (A,2 C4) B,2 | C8 | %13
 E4 E2 E2 F4 G4 G2 G2 F2 E2 D4 ^C8 |] %14
V:3
 B,4 B,2 B,2 C4 A,4 B,2 B,2 G,4 A,4 G,8 | A,4 G,2 G,2 | E,4 A,4 A,2 A,2 C2 C2 B,4 A,8 | %3
 F,4 A,2 A,2 | A,4 E,4 G,2 G,2 A,2 G,2 G,4 G,8 | G,4 C2 C2 |1 D4 C4 C2 A,2 A,2 ^G,2 A,8 | %7
 E,4 F,2 F,2 E,4 A,4 || C2 C2 C4 A,4 A,8 | C4 D2 D2 E4 C4 C2 C2 | A,2 D2 ^C4 A,8 | %11
 A,4 A,2 F,2 A,4 E,4 G,2 G,2 A,4 G,4 | G,8 | C4 B,2 B,2 D4 E4 E2 D2 C2 C2 A,4 A,8 |] %14
V:4
 E,4 E,2 E,2 A,,4 A,,4 G,,2 G,,2 G,,4 F,,4 C,8 | A,,4 C,2 G,,2 | %2
 A,,4 A,,4 A,,2 D,2 C,2 A,,2 E,4 A,,8 | D,4 D,2 D,2 | A,,4 A,,4 G,,2 C,2 F,,2 C,2 G,,4 C,8 | %5
 C,4 C,2 A,,2 |1 G,,4 C,4 A,,2 A,,2 E,2 E,2 A,,8 | A,,4 D,2 D,2 E,4 A,,4 || %8
 F,,2 F,,2 C,4 D,4 A,,8 | A,,4 D,2 G,,2 C,4 F,,4 C,2 C,2 | D,2 B,,2 A,,4 A,,8 | %11
 A,,4 F,,2 _B,,2 A,,4 A,,4 G,,2 C,2 F,,4 G,,4 | C,8 | %13
 A,,4 E,2 E,2 D,4 C,4 C,2 G,,2 A,,2 C,2 D,4 A,,8 |] %14

